X: 30519
T: Olympus Mons
R: slip jig
M: 9/8
K: Bminor
B2 b baf d2 B|Af/f/f fgf edc|GBd agf edc|Fc/c/c dcd edc|
Bb/b/b baf d2 B|Af/f/f fgf edc|EGB edc dcB|^ABc dcd edf|
B2 b baf d2 B|Af/f/f fgf edc|GBd agf edc|Fc/c/c dcd edc|
Bbb c'bf d2 B|Af/f/f fgf edc|EGB edc dcB|^ABc dcB BBF
|:G2 B cBc dcB|FG/B/c dcd edc|G2 B cBc dcB|Fg/g/g gfe dcB|
G2 B cBc dcB|FG/B/c dcd edc|^ABc dcd ede|fgf edc ^AFA:|

